Newaita-dark/apps/64/vokoscreen.svg

<svg height="64pt" viewBox="0 0 64 64" width="64pt" xmlns="http://www.w3.org/2000/svg" xmlns:xlink="http://www.w3.org/1999/xlink"><linearGradient id="a" gradientUnits="userSpaceOnUse" x1="31.753043" x2="31.753043" y1="56.067868" y2="58.71395575004"><stop offset="0" stop-opacity=".27451"/><stop offset="1" stop-opacity="0"/></linearGradient><linearGradient id="b"><stop offset="0" stop-opacity=".313725"/><stop offset=".222222" stop-opacity=".27451"/><stop offset="1" stop-opacity="0"/></linearGradient><radialGradient id="c" cx="450.90894" cy="189.57936" gradientTransform="matrix(.00000035 -.156265 -.281277 -.0000002 106.907382 127.190666)" gradientUnits="userSpaceOnUse" r="21.166656" xlink:href="#b"/><radialGradient id="d" cx="450.90894" cy="189.57936" gradientTransform="matrix(-.00000035 .156265 .281277 .0000002 -43.401318 -15.05496)" gradientUnits="userSpaceOnUse" r="21.166656" xlink:href="#b"/><radialGradient id="e" cx="450.90894" cy="189.57936" gradientTransform="matrix(-.00000035 -.156265 .281277 -.0000002 -43.401318 127.190666)" gradientUnits="userSpaceOnUse" r="21.166656" xlink:href="#b"/><radialGradient id="f" cx="450.90894" cy="189.57936" gradientTransform="matrix(.00000035 .156265 -.281277 .0000002 106.907378 -15.054961)" gradientUnits="userSpaceOnUse" r="21.166656" xlink:href="#b"/><linearGradient id="g"><stop offset="0" stop-color="#424242"/><stop offset="1" stop-color="#616161"/></linearGradient><linearGradient id="h" gradientTransform="matrix(.150699 0 0 .434824 -11.708026 67.282697)" gradientUnits="userSpaceOnUse" x1="306.91666" x2="305.95456" xlink:href="#g" y1="-25.791676" y2="-135.32916"/><linearGradient id="i"><stop offset="0" stop-color="#f44336"/><stop offset="1" stop-color="#ef5350"/></linearGradient><linearGradient id="j" gradientUnits="userSpaceOnUse" x1="37.045232" x2="37.045232" xlink:href="#i" y1="56.09525709502" y2="8.46567044893"/><linearGradient id="k" gradientTransform="matrix(.5 0 0 .571428 -105.83347 106.33793)" gradientUnits="userSpaceOnUse" x1="444.5" x2="444.5" xlink:href="#g" y1="185.875" y2="148.83333"/><linearGradient id="l" gradientTransform="matrix(.5 0 0 .571428 -63.500116 106.33793)" gradientUnits="userSpaceOnUse" x1="444.5" x2="444.5" xlink:href="#g" y1="185.875" y2="148.83333"/><linearGradient id="m" gradientTransform="matrix(.5 0 0 .571428 -21.166803 106.33793)" gradientUnits="userSpaceOnUse" x1="444.5" x2="444.5" xlink:href="#g" y1="185.875" y2="148.83333"/><linearGradient id="n" gradientTransform="matrix(.5 0 0 .571428 169.3332 106.33793)" gradientUnits="userSpaceOnUse" x1="444.5" x2="444.5" xlink:href="#g" y1="185.875" y2="148.83333"/><linearGradient id="o" gradientUnits="userSpaceOnUse" x1="31.753048" x2="31.753048" xlink:href="#i" y1="56.067868" y2="8.438296"/><path d="m9.261719 56.066406h44.984375v2.648438h-44.984375zm0 0" fill="url(#a)"/><path d="m54.246094 56.066406h5.289062v-2.644531h-5.289062zm0 0" fill="url(#c)"/><path d="m9.261719 56.066406h-5.292969v2.648438h5.292969zm0 0" fill="url(#d)"/><path d="m9.261719 56.066406h-5.292969v-2.644531h5.292969zm0 0" fill="url(#e)"/><path d="m54.246094 56.066406h5.289062v2.648438h-5.289062zm0 0" fill="url(#f)"/><path d="m6.613281 8.4375h50.277344c1.460937 0 2.644531 1.183594 2.644531 2.648438v42.335937c0 1.460937-1.183594 2.644531-2.644531 2.644531h-50.277344c-1.460937 0-2.644531-1.183594-2.644531-2.644531v-42.335937c0-1.464844 1.183594-2.648438 2.644531-2.648438zm0 0" fill="url(#h)"/><path d="m6.613281 56.09375c-1.464843 0-2.644531-1.179688-2.644531-2.644531v-.6875c0 1.464843 1.179688 2.644531 2.644531 2.644531h50.277344c1.464844 0 2.644531-1.179688 2.644531-2.644531v.6875c0 1.464843-1.179687 2.644531-2.644531 2.644531zm0 0" fill-opacity=".235294"/><path d="m13.230469 48.15625c-1.464844 0-2.644531 1.179688-2.644531 2.648438v3.96875c0 .730468.589843 1.320312 1.320312 1.320312h39.691406c.734375 0 1.324219-.589844 1.324219-1.320312v-3.96875c0-1.46875-1.179687-2.648438-2.644531-2.648438zm0 0" fill="url(#j)"/><g stroke="#212121" stroke-linecap="round" stroke-width="3" transform="matrix(.125012 0 0 .125012 0 26.877566)"><path d="m116.426382 191.398691c5.843192 0 10.561491 4.718299 10.561491 10.561491s-4.718299 10.592739-10.561491 10.592739-10.592739-4.749547-10.592739-10.592739 4.749547-10.561491 10.592739-10.561491zm0 0" fill="url(#k)"/><path d="m158.734842 191.398691c5.874439 0 10.592738 4.718299 10.592738 10.561491s-4.718299 10.592739-10.592738 10.592739c-5.843192 0-10.561492-4.749547-10.561492-10.592739s4.7183-10.561491 10.561492-10.561491zm0 0" fill="url(#l)"/><path d="m201.074548 191.398691c5.843192 0 10.592739 4.718299 10.592739 10.561491s-4.749547 10.592739-10.592739 10.592739-10.561491-4.749547-10.561491-10.592739 4.718299-10.561491 10.561491-10.561491zm0 0" fill="url(#m)"/><path d="m391.587605 191.398691c5.843192 0 10.592739 4.718299 10.592739 10.561491s-4.749547 10.592739-10.592739 10.592739-10.592738-4.749547-10.592738-10.592739 4.749546-10.561491 10.592738-10.561491zm0 0" fill="url(#n)"/></g><path d="m13.230469 48.15625c-1.464844 0-2.644531 1.179688-2.644531 2.648438v.632812c0-1.464844 1.179687-2.644531 2.644531-2.644531h37.046875c1.464844 0 2.644531 1.179687 2.644531 2.644531v-.632812c0-1.46875-1.179687-2.648438-2.644531-2.648438zm0 0" fill="#fff" fill-opacity=".392157"/><path d="m10.585938 54.109375v.664063c0 .730468.589843 1.320312 1.320312 1.320312h39.691406c.734375 0 1.324219-.589844 1.324219-1.320312v-.664063c0 .734375-.589844 1.324219-1.324219 1.324219h-39.691406c-.730469 0-1.320312-.589844-1.320312-1.324219zm0 0" fill-opacity=".235294"/><path d="m13.230469 47.96875c-1.566407 0-2.832031 1.269531-2.832031 2.835938v3.96875c0 .832031.675781 1.507812 1.507812 1.507812h39.691406c.835938 0 1.511719-.675781 1.511719-1.507812v-3.96875c0-1.566407-1.265625-2.835938-2.832031-2.835938zm0 .375h37.046875c1.363281 0 2.457031 1.09375 2.457031 2.460938v3.96875c0 .632812-.503906 1.132812-1.136719 1.132812h-39.691406c-.632812 0-1.132812-.5-1.132812-1.132812v-3.96875c0-1.367188 1.089843-2.460938 2.457031-2.460938zm0 0" fill="#212121"/><path d="m6.613281 8.589844c-1.464843 0-2.644531 1.179687-2.644531 2.648437v.359375c0-1.46875 1.179688-2.648437 2.644531-2.648437h50.277344c1.464844 0 2.644531 1.179687 2.644531 2.648437v-.359375c0-1.46875-1.179687-2.648437-2.644531-2.648437zm0 0" fill="#fff" fill-opacity=".392157"/><path d="m6.613281 8.25c-1.566406 0-2.832031 1.269531-2.832031 2.835938v42.335937c0 1.566406 1.265625 2.832031 2.832031 2.832031h50.277344c1.566406 0 2.832031-1.265625 2.832031-2.832031v-42.335937c0-1.566407-1.265625-2.835938-2.832031-2.835938zm0 .375h50.277344c1.367187 0 2.457031 1.09375 2.457031 2.460938v42.335937c0 1.367187-1.089844 2.457031-2.457031 2.457031h-50.277344c-1.363281 0-2.457031-1.089844-2.457031-2.457031v-42.335937c0-1.367188 1.09375-2.460938 2.457031-2.460938zm0 0" fill="#212121"/><path d="m31.753906 19.023438c5.113282 0 9.261719 4.144531 9.261719 9.261718 0 5.113282-4.148437 9.261719-9.261719 9.261719-5.117187 0-9.261718-4.148437-9.261718-9.261719 0-5.117187 4.144531-9.261718 9.261718-9.261718zm0 0" fill="url(#o)"/><path d="m31.753906 19.023438c-5.132812 0-9.261718 4.128906-9.261718 9.261718 0 .082032 0 .164063.003906.246094.128906-5.015625 4.210937-9.011719 9.257812-9.011719s9.125 3.996094 9.257813 9.011719c0-.082031.003906-.164062.003906-.246094 0-5.132812-4.132813-9.261718-9.261719-9.261718zm0 0" fill="#fff" fill-opacity=".392157"/><path d="m22.5 28.808594c-.003906.109375-.007812.21875-.007812.332031 0 5.128906 4.128906 9.261719 9.261718 9.261719 5.128906 0 9.261719-4.132813 9.261719-9.261719 0-.113281-.003906-.222656-.007813-.332031-.171874 4.976562-4.234374 8.929687-9.253906 8.929687-5.019531 0-9.082031-3.953125-9.253906-8.929687zm0 0" fill-opacity=".235294"/><path d="m254.006994-62.827032c40.902344 0 74.086675 33.153084 74.086675 74.086675 0 40.902344-33.184331 74.086675-74.086675 74.086675-40.933591 0-74.086676-33.184331-74.086676-74.086675 0-40.933591 33.153085-74.086675 74.086676-74.086675zm0 0" fill="none" stroke="#212121" stroke-linecap="round" stroke-linejoin="round" stroke-width="3" transform="matrix(.125012 0 0 .125012 0 26.877566)"/></svg>

<?xml version="1.0" encoding="UTF-8"?>
<svg xmlns="http://www.w3.org/2000/svg" xmlns:xlink="http://www.w3.org/1999/xlink" width="64pt" height="64pt" viewBox="0 0 64 64" version="1.1">
<defs>
<linearGradient id="linear0" gradientUnits="userSpaceOnUse" x1="254" y1="233.5" x2="254" y2="254.66667" gradientTransform="matrix(0.125012,0,0,0.125012,-0.00000500048,26.877566)">
<stop offset="0" style="stop-color:rgb(0%,0%,0%);stop-opacity:0.27451;"/>
<stop offset="1" style="stop-color:rgb(0%,0%,0%);stop-opacity:0;"/>
</linearGradient>
<radialGradient id="radial0" gradientUnits="userSpaceOnUse" cx="450.90894" cy="189.57936" fx="450.90894" fy="189.57936" r="21.166656" gradientTransform="matrix(0.000000348341,-0.156265,-0.281277,-0.000000203077,106.907382,127.190666)">
<stop offset="0" style="stop-color:rgb(0%,0%,0%);stop-opacity:0.313725;"/>
<stop offset="0.222222" style="stop-color:rgb(0%,0%,0%);stop-opacity:0.27451;"/>
<stop offset="1" style="stop-color:rgb(0%,0%,0%);stop-opacity:0;"/>
</radialGradient>
<radialGradient id="radial1" gradientUnits="userSpaceOnUse" cx="450.90894" cy="189.57936" fx="450.90894" fy="189.57936" r="21.166656" gradientTransform="matrix(-0.000000348341,0.156265,0.281277,0.000000203077,-43.401318,-15.05496)">
<stop offset="0" style="stop-color:rgb(0%,0%,0%);stop-opacity:0.313725;"/>
<stop offset="0.222222" style="stop-color:rgb(0%,0%,0%);stop-opacity:0.27451;"/>
<stop offset="1" style="stop-color:rgb(0%,0%,0%);stop-opacity:0;"/>
</radialGradient>
<radialGradient id="radial2" gradientUnits="userSpaceOnUse" cx="450.90894" cy="189.57936" fx="450.90894" fy="189.57936" r="21.166656" gradientTransform="matrix(-0.000000348341,-0.156265,0.281277,-0.000000203077,-43.401318,127.190666)">
<stop offset="0" style="stop-color:rgb(0%,0%,0%);stop-opacity:0.313725;"/>
<stop offset="0.222222" style="stop-color:rgb(0%,0%,0%);stop-opacity:0.27451;"/>
<stop offset="1" style="stop-color:rgb(0%,0%,0%);stop-opacity:0;"/>
</radialGradient>
<radialGradient id="radial3" gradientUnits="userSpaceOnUse" cx="450.90894" cy="189.57936" fx="450.90894" fy="189.57936" r="21.166656" gradientTransform="matrix(0.000000348341,0.156265,-0.281277,0.000000203077,106.907378,-15.054961)">
<stop offset="0" style="stop-color:rgb(0%,0%,0%);stop-opacity:0.313725;"/>
<stop offset="0.222222" style="stop-color:rgb(0%,0%,0%);stop-opacity:0.27451;"/>
<stop offset="1" style="stop-color:rgb(0%,0%,0%);stop-opacity:0;"/>
</radialGradient>
<linearGradient id="linear1" gradientUnits="userSpaceOnUse" x1="306.91666" y1="-25.791676" x2="305.95456" y2="-135.32916" gradientTransform="matrix(0.150699,0,0,0.434824,-11.708026,67.282697)">
<stop offset="0" style="stop-color:rgb(25.882353%,25.882353%,25.882353%);stop-opacity:1;"/>
<stop offset="1" style="stop-color:rgb(38.039216%,38.039216%,38.039216%);stop-opacity:1;"/>
</linearGradient>
<linearGradient id="linear2" gradientUnits="userSpaceOnUse" x1="1120" y1="1695.1182" x2="1120" y2="255.11812" gradientTransform="matrix(0.0330761,0,0,0.0330761,0,0.0273576)">
<stop offset="0" style="stop-color:rgb(95.686275%,26.27451%,21.176471%);stop-opacity:1;"/>
<stop offset="1" style="stop-color:rgb(93.72549%,32.54902%,31.372549%);stop-opacity:1;"/>
</linearGradient>
<linearGradient id="linear3" gradientUnits="userSpaceOnUse" x1="444.5" y1="185.875" x2="444.5" y2="148.83333" gradientTransform="matrix(0.5,0,0,0.571428,-105.83347,106.33793)">
<stop offset="0" style="stop-color:rgb(25.882353%,25.882353%,25.882353%);stop-opacity:1;"/>
<stop offset="1" style="stop-color:rgb(38.039216%,38.039216%,38.039216%);stop-opacity:1;"/>
</linearGradient>
<linearGradient id="linear4" gradientUnits="userSpaceOnUse" x1="444.5" y1="185.875" x2="444.5" y2="148.83333" gradientTransform="matrix(0.5,0,0,0.571428,-63.500116,106.33793)">
<stop offset="0" style="stop-color:rgb(25.882353%,25.882353%,25.882353%);stop-opacity:1;"/>
<stop offset="1" style="stop-color:rgb(38.039216%,38.039216%,38.039216%);stop-opacity:1;"/>
</linearGradient>
<linearGradient id="linear5" gradientUnits="userSpaceOnUse" x1="444.5" y1="185.875" x2="444.5" y2="148.83333" gradientTransform="matrix(0.5,0,0,0.571428,-21.166803,106.33793)">
<stop offset="0" style="stop-color:rgb(25.882353%,25.882353%,25.882353%);stop-opacity:1;"/>
<stop offset="1" style="stop-color:rgb(38.039216%,38.039216%,38.039216%);stop-opacity:1;"/>
</linearGradient>
<linearGradient id="linear6" gradientUnits="userSpaceOnUse" x1="444.5" y1="185.875" x2="444.5" y2="148.83333" gradientTransform="matrix(0.5,0,0,0.571428,169.3332,106.33793)">
<stop offset="0" style="stop-color:rgb(25.882353%,25.882353%,25.882353%);stop-opacity:1;"/>
<stop offset="1" style="stop-color:rgb(38.039216%,38.039216%,38.039216%);stop-opacity:1;"/>
</linearGradient>
<linearGradient id="linear7" gradientUnits="userSpaceOnUse" x1="254" y1="233.5" x2="254" y2="-147.5" gradientTransform="matrix(0.125012,0,0,0.125012,0,26.877566)">
<stop offset="0" style="stop-color:rgb(95.686275%,26.27451%,21.176471%);stop-opacity:1;"/>
<stop offset="1" style="stop-color:rgb(93.72549%,32.54902%,31.372549%);stop-opacity:1;"/>
</linearGradient>
</defs>
<g id="surface1">
<path style=" stroke:none;fill-rule:nonzero;fill:url(#linear0);" d="M 9.261719 56.066406 L 54.246094 56.066406 L 54.246094 58.714844 L 9.261719 58.714844 Z M 9.261719 56.066406 "/>
<path style=" stroke:none;fill-rule:nonzero;fill:url(#radial0);" d="M 54.246094 56.066406 L 59.535156 56.066406 L 59.535156 53.421875 L 54.246094 53.421875 Z M 54.246094 56.066406 "/>
<path style=" stroke:none;fill-rule:nonzero;fill:url(#radial1);" d="M 9.261719 56.066406 L 3.96875 56.066406 L 3.96875 58.714844 L 9.261719 58.714844 Z M 9.261719 56.066406 "/>
<path style=" stroke:none;fill-rule:nonzero;fill:url(#radial2);" d="M 9.261719 56.066406 L 3.96875 56.066406 L 3.96875 53.421875 L 9.261719 53.421875 Z M 9.261719 56.066406 "/>
<path style=" stroke:none;fill-rule:nonzero;fill:url(#radial3);" d="M 54.246094 56.066406 L 59.535156 56.066406 L 59.535156 58.714844 L 54.246094 58.714844 Z M 54.246094 56.066406 "/>
<path style=" stroke:none;fill-rule:nonzero;fill:url(#linear1);" d="M 6.613281 8.4375 L 56.890625 8.4375 C 58.351562 8.4375 59.535156 9.621094 59.535156 11.085938 L 59.535156 53.421875 C 59.535156 54.882812 58.351562 56.066406 56.890625 56.066406 L 6.613281 56.066406 C 5.152344 56.066406 3.96875 54.882812 3.96875 53.421875 L 3.96875 11.085938 C 3.96875 9.621094 5.152344 8.4375 6.613281 8.4375 Z M 6.613281 8.4375 "/>
<path style=" stroke:none;fill-rule:nonzero;fill:rgb(0%,0%,0%);fill-opacity:0.235294;" d="M 6.613281 56.09375 C 5.148438 56.09375 3.96875 54.914062 3.96875 53.449219 L 3.96875 52.761719 C 3.96875 54.226562 5.148438 55.40625 6.613281 55.40625 L 56.890625 55.40625 C 58.355469 55.40625 59.535156 54.226562 59.535156 52.761719 L 59.535156 53.449219 C 59.535156 54.914062 58.355469 56.09375 56.890625 56.09375 Z M 6.613281 56.09375 "/>
<path style=" stroke:none;fill-rule:nonzero;fill:url(#linear2);" d="M 13.230469 48.15625 C 11.765625 48.15625 10.585938 49.335938 10.585938 50.804688 L 10.585938 54.773438 C 10.585938 55.503906 11.175781 56.09375 11.90625 56.09375 L 51.597656 56.09375 C 52.332031 56.09375 52.921875 55.503906 52.921875 54.773438 L 52.921875 50.804688 C 52.921875 49.335938 51.742188 48.15625 50.277344 48.15625 Z M 13.230469 48.15625 "/>
<path style="fill-rule:nonzero;fill:url(#linear3);stroke-width:3;stroke-linecap:round;stroke-linejoin:miter;stroke:rgb(12.941176%,12.941176%,12.941176%);stroke-opacity:1;stroke-miterlimit:4;" d="M 116.426382 191.398691 C 122.269574 191.398691 126.987873 196.11699 126.987873 201.960182 C 126.987873 207.803374 122.269574 212.552921 116.426382 212.552921 C 110.58319 212.552921 105.833643 207.803374 105.833643 201.960182 C 105.833643 196.11699 110.58319 191.398691 116.426382 191.398691 Z M 116.426382 191.398691 " transform="matrix(0.125012,0,0,0.125012,0,26.877566)"/>
<path style="fill-rule:nonzero;fill:url(#linear4);stroke-width:3;stroke-linecap:round;stroke-linejoin:miter;stroke:rgb(12.941176%,12.941176%,12.941176%);stroke-opacity:1;stroke-miterlimit:4;" d="M 158.734842 191.398691 C 164.609281 191.398691 169.32758 196.11699 169.32758 201.960182 C 169.32758 207.803374 164.609281 212.552921 158.734842 212.552921 C 152.89165 212.552921 148.17335 207.803374 148.17335 201.960182 C 148.17335 196.11699 152.89165 191.398691 158.734842 191.398691 Z M 158.734842 191.398691 " transform="matrix(0.125012,0,0,0.125012,0,26.877566)"/>
<path style="fill-rule:nonzero;fill:url(#linear5);stroke-width:3;stroke-linecap:round;stroke-linejoin:miter;stroke:rgb(12.941176%,12.941176%,12.941176%);stroke-opacity:1;stroke-miterlimit:4;" d="M 201.074548 191.398691 C 206.91774 191.398691 211.667287 196.11699 211.667287 201.960182 C 211.667287 207.803374 206.91774 212.552921 201.074548 212.552921 C 195.231356 212.552921 190.513057 207.803374 190.513057 201.960182 C 190.513057 196.11699 195.231356 191.398691 201.074548 191.398691 Z M 201.074548 191.398691 " transform="matrix(0.125012,0,0,0.125012,0,26.877566)"/>
<path style="fill-rule:nonzero;fill:url(#linear6);stroke-width:3;stroke-linecap:round;stroke-linejoin:miter;stroke:rgb(12.941176%,12.941176%,12.941176%);stroke-opacity:1;stroke-miterlimit:4;" d="M 391.587605 191.398691 C 397.430797 191.398691 402.180344 196.11699 402.180344 201.960182 C 402.180344 207.803374 397.430797 212.552921 391.587605 212.552921 C 385.744413 212.552921 380.994867 207.803374 380.994867 201.960182 C 380.994867 196.11699 385.744413 191.398691 391.587605 191.398691 Z M 391.587605 191.398691 " transform="matrix(0.125012,0,0,0.125012,0,26.877566)"/>
<path style=" stroke:none;fill-rule:nonzero;fill:rgb(100%,100%,100%);fill-opacity:0.392157;" d="M 13.230469 48.15625 C 11.765625 48.15625 10.585938 49.335938 10.585938 50.804688 L 10.585938 51.4375 C 10.585938 49.972656 11.765625 48.792969 13.230469 48.792969 L 50.277344 48.792969 C 51.742188 48.792969 52.921875 49.972656 52.921875 51.4375 L 52.921875 50.804688 C 52.921875 49.335938 51.742188 48.15625 50.277344 48.15625 Z M 13.230469 48.15625 "/>
<path style=" stroke:none;fill-rule:nonzero;fill:rgb(0%,0%,0%);fill-opacity:0.235294;" d="M 10.585938 54.109375 L 10.585938 54.773438 C 10.585938 55.503906 11.175781 56.09375 11.90625 56.09375 L 51.597656 56.09375 C 52.332031 56.09375 52.921875 55.503906 52.921875 54.773438 L 52.921875 54.109375 C 52.921875 54.84375 52.332031 55.433594 51.597656 55.433594 L 11.90625 55.433594 C 11.175781 55.433594 10.585938 54.84375 10.585938 54.109375 Z M 10.585938 54.109375 "/>
<path style=" stroke:none;fill-rule:nonzero;fill:rgb(12.941176%,12.941176%,12.941176%);fill-opacity:1;" d="M 13.230469 47.96875 C 11.664062 47.96875 10.398438 49.238281 10.398438 50.804688 L 10.398438 54.773438 C 10.398438 55.605469 11.074219 56.28125 11.90625 56.28125 L 51.597656 56.28125 C 52.433594 56.28125 53.109375 55.605469 53.109375 54.773438 L 53.109375 50.804688 C 53.109375 49.238281 51.84375 47.96875 50.277344 47.96875 Z M 13.230469 48.34375 L 50.277344 48.34375 C 51.640625 48.34375 52.734375 49.4375 52.734375 50.804688 L 52.734375 54.773438 C 52.734375 55.40625 52.230469 55.90625 51.597656 55.90625 L 11.90625 55.90625 C 11.273438 55.90625 10.773438 55.40625 10.773438 54.773438 L 10.773438 50.804688 C 10.773438 49.4375 11.863281 48.34375 13.230469 48.34375 Z M 13.230469 48.34375 "/>
<path style=" stroke:none;fill-rule:nonzero;fill:rgb(100%,100%,100%);fill-opacity:0.392157;" d="M 6.613281 8.589844 C 5.148438 8.589844 3.96875 9.769531 3.96875 11.238281 L 3.96875 11.597656 C 3.96875 10.128906 5.148438 8.949219 6.613281 8.949219 L 56.890625 8.949219 C 58.355469 8.949219 59.535156 10.128906 59.535156 11.597656 L 59.535156 11.238281 C 59.535156 9.769531 58.355469 8.589844 56.890625 8.589844 Z M 6.613281 8.589844 "/>
<path style=" stroke:none;fill-rule:nonzero;fill:rgb(12.941176%,12.941176%,12.941176%);fill-opacity:1;" d="M 6.613281 8.25 C 5.046875 8.25 3.78125 9.519531 3.78125 11.085938 L 3.78125 53.421875 C 3.78125 54.988281 5.046875 56.253906 6.613281 56.253906 L 56.890625 56.253906 C 58.457031 56.253906 59.722656 54.988281 59.722656 53.421875 L 59.722656 11.085938 C 59.722656 9.519531 58.457031 8.25 56.890625 8.25 Z M 6.613281 8.625 L 56.890625 8.625 C 58.257812 8.625 59.347656 9.71875 59.347656 11.085938 L 59.347656 53.421875 C 59.347656 54.789062 58.257812 55.878906 56.890625 55.878906 L 6.613281 55.878906 C 5.25 55.878906 4.15625 54.789062 4.15625 53.421875 L 4.15625 11.085938 C 4.15625 9.71875 5.25 8.625 6.613281 8.625 Z M 6.613281 8.625 "/>
<path style=" stroke:none;fill-rule:nonzero;fill:url(#linear7);" d="M 31.753906 19.023438 C 36.867188 19.023438 41.015625 23.167969 41.015625 28.285156 C 41.015625 33.398438 36.867188 37.546875 31.753906 37.546875 C 26.636719 37.546875 22.492188 33.398438 22.492188 28.285156 C 22.492188 23.167969 26.636719 19.023438 31.753906 19.023438 Z M 31.753906 19.023438 "/>
<path style=" stroke:none;fill-rule:nonzero;fill:rgb(100%,100%,100%);fill-opacity:0.392157;" d="M 31.753906 19.023438 C 26.621094 19.023438 22.492188 23.152344 22.492188 28.285156 C 22.492188 28.367188 22.492188 28.449219 22.496094 28.53125 C 22.625 23.515625 26.707031 19.519531 31.753906 19.519531 C 36.800781 19.519531 40.878906 23.515625 41.011719 28.53125 C 41.011719 28.449219 41.015625 28.367188 41.015625 28.285156 C 41.015625 23.152344 36.882812 19.023438 31.753906 19.023438 Z M 31.753906 19.023438 "/>
<path style=" stroke:none;fill-rule:nonzero;fill:rgb(0%,0%,0%);fill-opacity:0.235294;" d="M 22.5 28.808594 C 22.496094 28.917969 22.492188 29.027344 22.492188 29.140625 C 22.492188 34.269531 26.621094 38.402344 31.753906 38.402344 C 36.882812 38.402344 41.015625 34.269531 41.015625 29.140625 C 41.015625 29.027344 41.011719 28.917969 41.007812 28.808594 C 40.835938 33.785156 36.773438 37.738281 31.753906 37.738281 C 26.734375 37.738281 22.671875 33.785156 22.5 28.808594 Z M 22.5 28.808594 "/>
<path style="fill:none;stroke-width:3;stroke-linecap:round;stroke-linejoin:round;stroke:rgb(12.941176%,12.941176%,12.941176%);stroke-opacity:1;stroke-miterlimit:4;" d="M 254.006994 -62.827032 C 294.909338 -62.827032 328.093669 -29.673948 328.093669 11.259643 C 328.093669 52.161987 294.909338 85.346318 254.006994 85.346318 C 213.073403 85.346318 179.920318 52.161987 179.920318 11.259643 C 179.920318 -29.673948 213.073403 -62.827032 254.006994 -62.827032 Z M 254.006994 -62.827032 " transform="matrix(0.125012,0,0,0.125012,0,26.877566)"/>
</g>
</svg>
